Sources/FrostedUI/Resources/Icons.xcassets/whopLogo12.imageset/whop-logo-12.svg

<svg width="12" height="12" viewBox="0 0 12 12" fill="none" xmlns="http://www.w3.org/2000/svg" data-fui-icon="true">
  <path
    d="M9.33887 3.69403C9.79181 3.69403 10.2546 4.03104 10.5 4.36884H10.4961L6.95215 7.91278C6.42759 8.43734 5.56867 8.43708 5.04395 7.91278L4.7041 7.57294L7.9082 4.36884C7.9127 4.36299 8.03125 4.24677 8.03125 4.24677C8.33974 3.95335 8.74762 3.69415 9.33887 3.69403ZM6.13086 3.69403C6.58371 3.69407 7.04564 4.03111 7.29102 4.36884L4.39648 7.26434L3.10254 5.9704L4.7041 4.36884C4.70927 4.36209 4.82324 4.24677 4.82324 4.24677C5.13177 3.95338 5.53955 3.69403 6.13086 3.69403ZM2.93066 3.69403C3.38338 3.69403 3.84643 4.03104 4.0918 4.36884L2.7959 5.66473L1.5 4.36884C1.49843 4.36524 1.62305 4.24677 1.62305 4.24677C1.93156 3.95336 2.33936 3.69408 2.93066 3.69403Z"
    fill="currentColor"
  />
</svg>

<svg xmlns="http://www.w3.org/2000/svg" width="12" height="12" fill="none" data-fui-icon="true" viewBox="0 0 12 12"><path fill="currentColor" d="M9.339 3.694c.453 0 .916.337 1.161.675h-.004L6.952 7.913a1.354 1.354 0 0 1-1.908 0l-.34-.34 3.204-3.204.123-.122c.309-.294.717-.553 1.308-.553m-3.208 0c.453 0 .915.337 1.16.675L4.396 7.264 3.103 5.97 4.704 4.37c.005-.007.12-.122.12-.122.308-.294.716-.553 1.307-.553m-3.2 0c.452 0 .915.337 1.16.675L2.797 5.665 1.5 4.369c-.002-.004.123-.122.123-.122.309-.294.716-.553 1.308-.553"/></svg>
